X: 58
T:Y Crefftwr
T:The Craftsman
M:C
L:1/8
Q:220
S:Mary Richards' (1787-1877) Collection
R:Welsh Reel
A:Wales
Z:brian_martin12345@yahoo.com
K:D
defed2d2|d2cde4|defed2d2|d2cBA4:||!
FGAF BGd2|FGAF BGd2|FGAF BcdB|AGFED4:||
